X:3201
T:Johnnie's Welcome Hame
P:John Mortimer
C:Drummond Cook
R:Reel (8x40) ABABB
B:RSCDS 32-1
Z:Anselm Lingnau <anselm@strathspey.org>
M:4/4
L:1/8
K:G
dc|"G"B2dB "D7"AcBA|"G"G2d2d3 c|"Em"B2e2e2 gf|"Am"edcB "D7"A2 dc|
   "G"B2dB "D7"AcBA|"G"G2d2d2 D2|"Am"E2A2 "D7"GFED|"G"G4G2||
"D7"DC|"G"B,2D2D2 GF|"Am"E2A2A2 AG|"D"F2A2 dedc|"G"Bcde "D7"d2 DC|
   "G"B,2D2D2 GF|"Am"E2 AB cBAG|"D"F2d2 "D7"dcBA|"G"G4G2|]
